usr/share/icons/biglinux-icons-material-dark/symbolic/status/device-notifier-symbolic.svg

<?xml version="1.0" encoding="UTF-8" standalone="no"?>
<svg
   id="svg"
   version="1.1"
   viewBox="0 0 22 22"
   width="22"
   height="22"
   xmlns="http://www.w3.org/2000/svg"
   xmlns:svg="http://www.w3.org/2000/svg"
   xmlns:rdf="http://www.w3.org/1999/02/22-rdf-syntax-ns#"
   xmlns:cc="http://creativecommons.org/ns#"
   xmlns:dc="http://purl.org/dc/elements/1.1/">
  <metadata
     id="metadata47">
    <rdf:RDF>
      <cc:Work
         rdf:about="">
        <dc:format>image/svg+xml</dc:format>
        <dc:type
           rdf:resource="http://purl.org/dc/dcmitype/StillImage" />
      </cc:Work>
    </rdf:RDF>
  </metadata>
  <defs
     id="defs3">
    <style
       id="current-color-scheme"
       type="text/css">.ColorScheme-Text { color:#333333; } .ColorScheme-Highlight { color:#5294e2; } .ColorScheme-ButtonBackground { color:#dedede; }</style>
  </defs>
  <g
     id="22-22-device-notifier"
     transform="translate(-9.9999997e-6,-1.2617e-5)">
    <rect
       x="9.9999997e-06"
       y="1.2617e-05"
       width="22"
       height="22"
       fill="none"
       opacity="0.2"
       id="rect27" />
    <path
       d="M 8.5000001,3.0000002 H 13.5 c 0.2761,0 0.5,0.22386 0.5,0.5 v 3.5 c 1.1046,0 2,0.89543 2,2 V 17 c 0,1.1046 -0.8954,2 -2,2 H 7.9999999 c -1.10457,0 -2,-0.8954 -2,-2 V 9.0000002 c 0,-1.10457 0.89543,-2 2,-2 v -3.5 c 0,-0.27614 0.2238602,-0.5 0.5000002,-0.5 z m 4.4999999,4 v -3 H 9.0000001 v 3 z m -5.0000001,1 c -0.55228,0 -1,0.44772 -1,1 V 17 c 0,0.5523 0.44772,1 1,1 H 14 c 0.5523,0 1,-0.4477 1,-1 V 9.0000002 c 0,-0.55228 -0.4477,-1 -1,-1 z"
       fill="currentColor"
       id="path844"
       class="ColorScheme-Text" />
  </g>
</svg>

<svg xmlns="http://www.w3.org/2000/svg" id="svg" width="22" height="22" version="1.1">
<defs id="defs3">
<style id="current-color-scheme" type="text/css">
.ColorScheme-Contrast{color:#333}
</style>
</defs>
<g id="22-22-device-notifier">
<path id="rect27" fill="none" d="M0 0h22v22H0z" opacity=".2"/>
<path id="path844" fill="currentColor" d="M8.5 3h5a.5.5 0 0 1 .5.5V7a2 2 0 0 1 2 2v8a2 2 0 0 1-2 2H8a2 2 0 0 1-2-2V9a2 2 0 0 1 2-2V3.5a.5.5 0 0 1 .5-.5M13 7V4H9v3zM8 8a1 1 0 0 0-1 1v8a1 1 0 0 0 1 1h6a1 1 0 0 0 1-1V9a1 1 0 0 0-1-1z" class="ColorScheme-Contrast"/>
</g>
</svg>
